X: 25
T: Congress, The
C: Joe Mills
Z: Oisin Morgan
S: https://thesession.org/tunes/208#setting48048
R: reel
M: 4/4
L: 1/8
K: Ador
|:eAAG ABcd|eaaf gedg|eAcA eAcA|BGGF GABd|
eAAG A2Bd|eaaf gedB|cBcd eged|cABG ABcd:|
|:eaag a2ag|eaag egdg|e/f/gdg e/f/gdg|eaaf gedg|
eaag abag|eaaf gedB|cBcd e/f/g/ ed|cABG ABcd:|

